packages/sources/assets/src/assets/flag-me.svg

<svg width="28" height="20" viewBox="0 0 28 20" fill="none" xmlns="http://www.w3.org/2000/svg">
<rect width="28" height="20" rx="2" fill="white"/>
<mask id="mask0_503_4686" style="mask-type:alpha" maskUnits="userSpaceOnUse" x="0" y="0" width="28" height="20">
<rect width="28" height="20" rx="2" fill="white"/>
</mask>
<g mask="url(#mask0_503_4686)">
<rect width="28" height="20" fill="#E6BE53"/>
<path fill-rule="evenodd" clip-rule="evenodd" d="M1.3335 17.6666C1.3335 18.2189 1.78121 18.6666 2.3335 18.6666H25.6668C26.2191 18.6666 26.6668 18.2189 26.6668 17.6666V2.33331C26.6668 1.78103 26.2191 1.33331 25.6668 1.33331H2.3335C1.78121 1.33331 1.3335 1.78103 1.3335 2.33331V17.6666Z" fill="#E01826"/>
<path fill-rule="evenodd" clip-rule="evenodd" d="M13.0233 3.65888C12.5532 3.8156 12.4123 4.41231 12.7627 4.76274L13.1381 5.13806C13.2631 5.26309 13.4327 5.33332 13.6095 5.33332H14.3905C14.5673 5.33332 14.7369 5.26309 14.8619 5.13806L15.2373 4.76274C15.5877 4.4123 15.4468 3.8156 14.9767 3.65888L14.2108 3.4036C14.074 3.35798 13.926 3.35798 13.7892 3.4036L13.0233 3.65888ZM14.4716 6.86193C14.2112 7.12228 13.7891 7.12228 13.5288 6.86193L13.3335 6.66667L12.3399 5.6731C12.137 5.4702 11.827 5.41989 11.5704 5.54822L11.4941 5.58635C11.0871 5.78985 10.9991 6.33228 11.3209 6.65404L11.3335 6.66667L12.3271 7.66023C12.53 7.86314 12.5803 8.17312 12.4519 8.42978L12.0381 9.25741C12.0132 9.30734 12.0002 9.36239 12.0002 9.41821C12.0002 9.68551 11.7189 9.85935 11.4798 9.73982L11.1569 9.57836C10.9158 9.45782 10.8637 9.13651 11.0543 8.94591C11.2085 8.79169 11.2085 8.54165 11.0543 8.38742L10.7433 8.0765C10.6927 8.02583 10.6505 7.96733 10.6184 7.90324L10.0329 6.73212C10.0111 6.68862 9.99421 6.64286 9.98241 6.59567L9.6732 5.35883C9.53705 4.81423 8.82992 4.67143 8.49311 5.12052L7.46683 6.48889C7.38028 6.60429 7.3335 6.74464 7.3335 6.88889V9.17595C7.3335 9.27945 7.35759 9.38153 7.40388 9.4741L7.95178 10.5699C7.98383 10.634 8.02599 10.6925 8.07666 10.7432L9.257 11.9235C9.30767 11.9742 9.36617 12.0163 9.43026 12.0484L10.6039 12.6352C10.6453 12.6559 10.6909 12.6667 10.7372 12.6667C11.0518 12.6667 11.1519 13.0908 10.8705 13.2315L10.716 13.3087C10.6834 13.325 10.6537 13.3465 10.6279 13.3722L10.3335 13.6667C10.1494 13.8508 9.85092 13.8508 9.66683 13.6667C9.48273 13.4826 9.18426 13.4826 9.00016 13.6667L8.94607 13.7208C8.77931 13.8875 8.73797 14.1423 8.84344 14.3532L9.14923 14.9648C9.26216 15.1907 9.493 15.3333 9.74552 15.3333H10.5095C10.6129 15.3333 10.715 15.3092 10.8076 15.263L11.8014 14.766C11.9304 14.7015 12.035 14.5969 12.0995 14.4679L12.4018 13.8634C12.5322 13.6026 12.8797 13.5462 13.0859 13.7524C13.2299 13.8964 13.2522 14.1219 13.1393 14.2914L12.37 15.4453C12.1657 15.7517 12.2485 16.1656 12.5549 16.3698L13.6304 17.0868C13.8543 17.2361 14.146 17.2361 14.37 17.0868L15.4455 16.3698C15.7518 16.1656 15.8346 15.7517 15.6304 15.4453L14.8611 14.2914C14.7481 14.1219 14.7705 13.8964 14.9144 13.7524C15.1206 13.5462 15.4681 13.6026 15.5985 13.8634L15.9008 14.4679C15.9653 14.5969 16.0699 14.7015 16.1989 14.766L17.1927 15.263C17.2853 15.3092 17.3874 15.3333 17.4909 15.3333H18.2548C18.5073 15.3333 18.7382 15.1907 18.8511 14.9648L19.1569 14.3532C19.2624 14.1423 19.221 13.8875 19.0543 13.7208L19.0002 13.6667C18.8161 13.4826 18.5176 13.4826 18.3335 13.6667C18.1494 13.8508 17.8509 13.8508 17.6668 13.6667L17.3724 13.3722C17.3466 13.3465 17.3169 13.325 17.2843 13.3087L17.1298 13.2315C16.8484 13.0908 16.9485 12.6667 17.2631 12.6667C17.3094 12.6667 17.355 12.6559 17.3964 12.6352L18.5701 12.0484C18.6342 12.0163 18.6927 11.9742 18.7433 11.9235L19.9237 10.7432C19.9743 10.6925 20.0165 10.634 20.0485 10.5699L20.5964 9.4741C20.6427 9.38153 20.6668 9.27945 20.6668 9.17595V6.88889C20.6668 6.74464 20.62 6.60429 20.5335 6.48889L19.5072 5.12052C19.1704 4.67143 18.4633 4.81423 18.3271 5.35883L18.0179 6.59567C18.0061 6.64286 17.9892 6.68862 17.9674 6.73212L17.3819 7.90324C17.3498 7.96733 17.3077 8.02583 17.257 8.0765L16.9461 8.38743C16.7919 8.54165 16.7918 8.79169 16.9461 8.94591C17.1367 9.13651 17.0845 9.45782 16.8434 9.57836L16.5205 9.73982C16.2815 9.85935 16.0002 9.68551 16.0002 9.41821C16.0002 9.36239 15.9872 9.30734 15.9622 9.25741L15.5484 8.42978C15.4201 8.17312 15.4704 7.86314 15.6733 7.66023L16.6668 6.66667L16.6795 6.65404C17.0012 6.33228 16.9132 5.78985 16.5062 5.58635L16.4299 5.54822C16.1733 5.41989 15.8633 5.4702 15.6604 5.6731L14.6668 6.66667L14.4716 6.86193Z" fill="#E6BE53"/>
<path fill-rule="evenodd" clip-rule="evenodd" d="M12.6665 11.3333C12.6665 11.5788 13.0799 11.6604 13.1995 11.4461C13.4319 11.0295 13.7159 10.6666 13.9998 10.6666C14.2838 10.6666 14.5678 11.0295 14.8002 11.4461C14.9198 11.6604 15.3332 11.5788 15.3332 11.3333C15.3332 10.2287 14.7362 9.33331 13.9998 9.33331C13.2635 9.33331 12.6665 10.2287 12.6665 11.3333Z" fill="#215F90"/>
</g>
</svg>

<svg width="28" height="20" fill="none" xmlns="http://www.w3.org/2000/svg"><rect width="28" height="20" rx="2" fill="#fff"/><mask id="a" style="mask-type:alpha" maskUnits="userSpaceOnUse" x="0" y="0" width="28" height="20"><rect width="28" height="20" rx="2" fill="#fff"/></mask><g mask="url(#a)"><path fill="#E6BE53" d="M0 0h28v20H0z"/><path fill-rule="evenodd" clip-rule="evenodd" d="M1.333 17.667a1 1 0 0 0 1 1h23.334a1 1 0 0 0 1-1V2.333a1 1 0 0 0-1-1H2.333a1 1 0 0 0-1 1v15.334Z" fill="#E01826"/><path fill-rule="evenodd" clip-rule="evenodd" d="M13.023 3.659a.667.667 0 0 0-.26 1.104l.375.375a.667.667 0 0 0 .472.195h.78c.177 0 .347-.07.472-.195l.375-.375a.667.667 0 0 0-.26-1.104l-.766-.255a.666.666 0 0 0-.422 0l-.766.255Zm1.449 3.203a.667.667 0 0 1-.943 0l-.195-.195-.994-.994a.667.667 0 0 0-.77-.125l-.076.038a.667.667 0 0 0-.173 1.068l.013.013.993.993a.667.667 0 0 1 .125.77l-.414.827a.36.36 0 0 0-.038.161.36.36 0 0 1-.52.322l-.323-.162a.395.395 0 0 1-.103-.632.395.395 0 0 0 0-.559l-.31-.31a.67.67 0 0 1-.126-.174l-.585-1.17a.664.664 0 0 1-.05-.137l-.31-1.237a.667.667 0 0 0-1.18-.238L7.467 6.489a.667.667 0 0 0-.133.4v2.287a.67.67 0 0 0 .07.298l.548 1.096a.667.667 0 0 0 .125.173l1.18 1.18c.05.051.11.093.173.125l1.174.587c.041.02.087.032.133.032.315 0 .415.424.133.565l-.154.077a.341.341 0 0 0-.088.063l-.294.295a.471.471 0 0 1-.667 0 .471.471 0 0 0-.667 0l-.054.054a.548.548 0 0 0-.103.632l.306.612a.667.667 0 0 0 .597.368h.763a.667.667 0 0 0 .299-.07l.993-.497a.667.667 0 0 0 .299-.298l.302-.605a.427.427 0 1 1 .737.428l-.769 1.154a.667.667 0 0 0 .185.925l1.075.717c.224.15.516.15.74 0l1.075-.717a.667.667 0 0 0 .185-.925l-.769-1.154a.427.427 0 1 1 .737-.428l.303.605a.666.666 0 0 0 .298.298l.994.497c.092.046.194.07.298.07h.764a.667.667 0 0 0 .596-.368l.306-.612a.548.548 0 0 0-.103-.632L19 13.667a.471.471 0 0 0-.666 0 .471.471 0 0 1-.667 0l-.295-.295a.341.341 0 0 0-.088-.063l-.154-.077c-.282-.141-.181-.565.133-.565a.293.293 0 0 0 .133-.032l1.174-.587a.666.666 0 0 0 .173-.124l1.18-1.18a.673.673 0 0 0 .126-.174l.547-1.096a.667.667 0 0 0 .07-.298V6.889a.667.667 0 0 0-.133-.4L19.508 5.12a.667.667 0 0 0-1.18.238l-.31 1.237a.664.664 0 0 1-.05.136l-.585 1.171a.667.667 0 0 1-.125.173l-.31.311a.395.395 0 0 0 0 .559c.19.19.137.512-.104.632l-.323.162a.36.36 0 0 1-.52-.322.36.36 0 0 0-.038-.16l-.414-.828a.667.667 0 0 1 .125-.77l.994-.993.012-.013a.667.667 0 0 0-.173-1.068l-.076-.038a.667.667 0 0 0-.77.125l-.993.994-.195.195Z" fill="#E6BE53"/><path fill-rule="evenodd" clip-rule="evenodd" d="M12.666 11.333c0 .246.414.327.534.113.232-.416.516-.78.8-.78.284 0 .568.364.8.78.12.214.533.133.533-.113 0-1.104-.597-2-1.333-2s-1.334.896-1.334 2Z" fill="#215F90"/></g></svg>
